X: 1
T:Planxty Irwin
M:6/8
L:1/8
C:O'Carolan
R:Air
K:G
d | g2-f e>fg | d2-c B>AG | c2-A B>cd | F2-G A2-d | g2-f e>fg | d2-c B>A
G | c2-A B>cd | G2 F G2 :|
|: d | g>ag g>fg | a>ba a>fd | b2 b a>bg | f2-e d>ef | g2-f e>fg | d2-c
B>AG | c2-A B>cd | G2 F G2 :|
